X:16
T:Priest, The
R:slide
D:Bothy Band: Out of the Wind, into the Sun
Z:id:hn-slide-16
M:6/8
K:G
g|:edB d2B|d2B B2g|edB d2B|c2A A2g|
edB d2B|BAB ~g3|BAB gfg|1 B2G G2g:|2 B2G G3||
|:gag fgf|g2e e2d|eaa aga|b2e e2f|
gag fgf|g2e e2d|BAB gfg|1 B2G G3:|2 B2G G2||
<end>
<start>
